X: 28392
T: Muireann's
R: jig
M: 6/8
K: Bminor
|:dBA B3|def ede|f2e ede|faf efe|
dBA B3|def ede|fba fed|fee edB:|
|:BAB e3|BAB f3|fba fed|fee edB|
BAB e3|BAB f3|baf a3|fee edB:|
|:BAF E2G|FDE FDE|FAA ABB|Bdd edB|
BAF E2G|FDE FDE|FAB def|1 fed edB:|2 fed e3||
|:fef b2f|fef a3|fba fed|fee ede|
fef b2f|fef a3|baf a3|1 fee ede:|2 fee edB||

